tenants/donaldduck/icons/arrow_up.svg

<svg fill="none" height="24" viewBox="0 0 24 24" width="24" xmlns="http://www.w3.org/2000/svg"><path d="m15.7165 23.4025c.3005-.2988.4006-.6971.4006-1.0954l-1.5023-15.63489h3.1048c.6009 0 1.1017-.29875 1.2018-.89625.2003-.49795 0-1.09545-.4006-1.3942l-5.6086-4.082997c-.5008-.3983498-1.302-.3983498-1.8028 0l-5.60864 4.082997c-.30045.19915-.50075.5975-.50075.99585 0 .0996 0 .29875.10015.39835.2003.4979.7011.89625 1.20185.89625h2.90445l-1.40215 15.83399c0 .3984.10015.7967.3005.9959.30045.2987.6009.4979 1.0015.4979h5.50849c.4006-.0996.8012-.2988 1.1017-.5975zm-5.90909-1.4938 1.40219-15.83399c0-.39835-.1002-.6971-.4006-.99585-.3005-.29875-.601-.49795-1.00159-.49795h-1.302l3.50539-2.4896 3.5054 2.5892h-1.5023c-.4006 0-.8012.19915-1.0015.39835-.3005.29875-.4007.5975-.3005.99585l1.302 15.83399z" fill="#1b1d21"/></svg>

<svg width="24" height="24" viewBox="0 0 24 24" fill="none" xmlns="http://www.w3.org/2000/svg">
<path d="M15.7165 23.4025C16.017 23.1037 16.1171 22.7054 16.1171 22.3071L14.6148 6.67221L17.7196 6.67221C18.3205 6.67221 18.8213 6.37346 18.9214 5.77596C19.1217 5.27801 18.9214 4.68051 18.5208 4.38176L12.9122 0.298763C12.4114 -0.0995868 11.6102 -0.0995868 11.1094 0.298763L5.50076 4.38176C5.20031 4.58091 5.00001 4.97926 5.00001 5.37761C5.00001 5.47721 5.00001 5.67636 5.10016 5.77596C5.30046 6.27386 5.80126 6.67221 6.30201 6.67221L9.20646 6.67221L7.80431 22.5062C7.80431 22.9046 7.90446 23.3029 8.10481 23.5021C8.40526 23.8008 8.70571 24 9.10631 24L14.6148 24C15.0154 23.9004 15.416 23.7012 15.7165 23.4025ZM9.80741 21.9087L11.2096 6.07471C11.2096 5.67636 11.1094 5.37761 10.809 5.07886C10.5085 4.78011 10.208 4.58091 9.80741 4.58091L8.50541 4.58091L12.0108 2.09131L15.5162 4.68051L14.0139 4.68051C13.6133 4.68051 13.2127 4.87966 13.0124 5.07886C12.7119 5.37761 12.6117 5.67636 12.7119 6.07471L14.0139 21.9087L9.80741 21.9087Z" fill="#1B1D21"/>
</svg>
